X:1
T:Zw61f Variationen in C
T:Zwölf Variationen in C
T:Mozart
T:Endstanden wahrscheinlich Paris, 1778
C:Endstanden wahrscheinlich Paris, 1778
%%score { ( 1 4 5 ) | ( 2 3 ) }
L:1/8
Q:1/4=120
M:2/4
K:C
V:1 treble nm="Piano" snm="Pno."
V:4 treble 
V:5 treble 
V:2 bass 
V:3 bass 
V:1
"^Theme" c2 c2 | g2 g2 | a2 a2 | g2 g2 | f2 f2 | e2 e2 | d2 d>e | c4 :: g2 g2 | f2 f2 | e2 e2 | %11
 d2 d2 | g2 g2 | f2 f2 | e2 e>f | (e2 d2) | c2 c2 | g2 g2 | a2 a2 | g2 g2 | f2 f2 | e2 e2 | %22
 d2 d>e | c4 ::"^Variation 1" d/c/B/c/ B/c/B/c/ | a/g/^f/g/ f/g/f/g/ | ^g/a/c'/b/ d'/c'/b/a/ | %27
 (a/=g/)e'/d'/ c'/b/a/g/ | (g/f/)d'/c'/ b/a/g/f/ | (f/e/)c'/b/ a/g/f/e/ | d(ag)B |1 c2 z2 :|2 %32
 c2 z2 |: a/g/^f/g/ f/g/a/g/ | g/=f/e/f/ e/f/g/f/ | f/e/^d/e/ d/e/f/e/ | e/=d/^c/d/ c/d/e/d/ | %37
 a/g/^f/g/ e'/c'/a/g/ | g/=f/e/f/ d'/b/g/f/ | f/e/^d/e/ c'/g/f/e/ | (g>e =d2) | d/c/B/c/ B/c/B/c/ | %42
 a/g/^f/g/ f/g/f/g/ | ^g/a/c'/b/ d'/c'/b/a/ | (a/=g/)e'/d'/ c'/b/a/g/ | (g/f/)d'/c'/ b/a/g/f/ | %46
 (f/e/)c'/b/ a/g/f/e/ | d(ag)B | c2 z2 ::"^Variation 2" c2 c2 | [cg]2 ([cg]2- | a4) | g4 | f2 f2 | %54
 e2 (e2 | [cd]2) [Bd]2 | [Gc]2 z2 :: [cg]2 [c-g]2 | [cf]2 [Bf]2 | [ce]>d Te>f | (e2 d2) | %61
 [cg]2 (.[cg]2 | .[cf]2) [Bf]2 | [Ge]>d e>f | (e2 d2) | [EGc]2 c3/2B/4c/4 | g2 ([cg]2 | a2) a2 | %68
 g2 g2 | ^f2 =f2 | e2 (e2 | [cd]2) [Bd]2 | [Gc]2 z2 ::"^Variation 3" (3CEG (3ceg | (3c'gf (3edc | %75
 (3a^ga (3c'ba | (3(a^f).=g (3.g.c'.e' | (3(e'=f).f (3.f.b.d' | (3d'e.e (3.e.a.c' | %79
 (3c'd.a (3(ag).B | c2 z2 :: (3Tg^f.g (3e'c'g | (3(ge).=f (3d'bf | (3(f^d).e (3c'ge | %84
 (3(e^c).=d (3fdB | (3g^fg (3e'^c'g | (3(ge).=f (3d'bf | (3(f^d).e (3c'ae | (g>e) =d2 | %89
 (3CEG (3ceg | (3c'gf (3edc | (3a^ga (3.c'ba | (3(a^f).=g (3.g.c'.e' | (3(e'=f).f (3.f.b.d' | %94
 (3d'e.e (3.e.a.c' | (3(c'd).a (3(ag).B | c2 z2 ::"^Variation 4" c2 c2 | g2 g2 | g2 e2- | f2 (e2 | %101
 [ef]2) [d-f]2 | [de]2 [c-e]2 | [cd]2 [Bd]2 | [Gc]2 z2 :: g2 g2 | e2 (d2 | e2-) e>a | e2 (3def | %109
 g2 g2 | f4 | e2- e>a | e2 (3d(fd) | c2 c2 | g2 (g2 | g2) f2 | f2 (e2 | [ef]2) [d-f]2 | %118
 [de]2 [c-e]2 | [cd]2 [Bd]2 | [Gc]2 z2 ::"^Variation 5" c2 z c | g2 z g | a2 z a | x2 z g | %125
 z f z f | z e z e | z d z d | c2 z2 :: g2 z (g | ^f2) z (=f | e2) z (_e | d2) z G | g2 z (g/^f/ | %134
 =f2) z (f/e/ | _e2) z (^f/g/ | d2) z (=f/d/ | c2) z c/(e/ | g2) z (g/e/ | a2) z (a/c'/ | %140
 g2) z (e/g/) | z (g/^f/) z (d/=f/) | z (f/e/) z (g/e/) | z (^c/d/) z (f/d/) | z (B/=c/) z2 :: %145
"^Variation 6" [EGc] z [EGc] z | [ceg] z [ceg] z | [cga] z [cfa] z | [cfg] z [ceg] z | %149
 [Aef] z [Gdf] z | [Gde] z [Ace] z | [FAd] z [DFB] z | [EGc]2 z2 :: z4 | z4 | %155
[I:staff +1] A/G/A/[I:staff -1]D/ E/D/E/^F/ | G/^F/G/F/ G/F/G/F/ | G/^F/G/F/ G/F/G/F/ | %158
 G/^F/G/F/ G/A/B/G/ | c/B/c/d/ e/d/e/^f/ | g/a/=f/g/ e/f/d/e/ | c z [EGc] z | [ceg] z [ceg] z | %163
 [cga] z [cfa] z | [cfg] z [ceg] z | [Aef] z [Gdf] z | [Gde] z [Ace] z | [FAd] z [DFB] z | %168
 [EGc]2 z2 ::"^Variation 7" CD/E/ F/G/A/B/ | c/d/e/f/ g/a/b/c'/ | b/a/^g/a/ d'/c'/b/a/ | %172
 a/=g/^f/g/ z/ g/e'/g/ | z/ =f/e'/f/ z/ f/d'/f/ | z/ e/d'/e/ z/ e/c'/e/ | z/ d/c'/d/ z/ d/b/d/ | %176
 [egc']2 z2 :: g/c'/e'/d'/ c'/b/a/g/ | f/e/d/c/ B/A/G/F/ | E.e.f.^f | (g>e) d z | %181
 g/c'/e'/d'/ c'/b/a/g/ | =f/e/d/c/ B/A/G/F/ | E.e.f.^f | (g>e) d z | CD/E/ F/G/A/B/ | %186
 c/d/e/f/ g/a/b/c'/ | b/a/^g/a/ d'/c'/b/a/ | a/=g/^f/g/ z/ g/e'/g/ | z/ =f/e'/f/ z/ f/d'/f/ | %190
 z/ e/d'/e/ z/ e/c'/e/ | z/ d/c'/d/ z/ d/b/d/ | [egc']2 z2 ::[K:Eb]"^Variation 8" .c.d.e.f | %194
 g2 g2 | g2 (f2 | f2) (e2 | f4) | [Gd] c2 z | c2 =B2 | c2 z2 :: z g ag | ^f2 =f2 | =e2 _e2- | %204
 e2 d2- | d2 (c2 | [=Ac]2) [_A=B]2 | (cc d)e | (gf) e.d | .c.d.e.f | ^fg/ z/ fg/ z/ | g2 (=f2 | %212
 f2) (e2 | f4) | d c2- z | c2 =B2 | c2 z2 ::[K:C]"^Variation 9" c2 c2 | g2 (g2 | g2) (f2 | %220
 f2) (e2 | f4) | e2 x c | cB AB | c2 z2 :: .g2 .g2 | .f2 .f2 | e2 e>f | e2 d2 | c2 c2- | cB AB | %231
 c(c de) | fga.b | c'2 c'2 | g2 g2 | a2 a2 | g2 e>g | f2 d>f | e2 c2 | (cB AB) | c2 z2 :: %241
"^Variation 10" z/ E/c/E/"^m.s." z/ E/G/E/ | g2 g2 | a2 a2 | g2 x g/ x/ | x ^f/ x3/2 =f/ x/ | %246
 x e/ x3/2 e/ x/ | x d/ x3/2 d | [EGc]2 z2 :: x2"^m.s." g2 | ^f2 =f2 | e2 x e/ x/ | %252
 x d/ x3/2 d/ x/ | x e/ x3/2 g/ x/ | x ^f/ x3/2 =f/ x/ | x e/ x3/2 e/ x/ | d/c/B/A/ G/F/E/D/ | %257
 x2"^m.s." c2 | g2 g2 | a2 a2 | g2 x g/ x/ | x ^f/ x3/2 =f/ x/ | x e/ x3/2 e/ x/ | %263
 x d/ x3/2 d/ x/ | [EGc]2 z2 ::[M:2/4]"^Variation 11"[Q:1/4=80] (c>G) (e>c) | g g2 g | %267
 [cga] [cfa]2 [cfa] | [cfg] [ceg]2 [ceg] | g/f/f z/{e'} d'/b/{a}g/ | %270
 (f/>^d/)e z/{a} g/{f}(e/{=d}c/) | B/>A/{g} (f/e/4d/4) (cB) | ([FGBd]2 [EGc]) z :: %273
 (g3/2a/4b/4) .c'/.b/.a/.g/ | (g/f/4) z/4 (e/d/4) z/4 (cB/) z/ | c3/2{dcBc}(d/ e3/2){edeg}(f/ | %276
 e3/2)f/4e/4 d/e/f/^f/ | .g3/2.a/4.b/4 (c'/4d'/4)(e'/4d'/4) (c'/4b/4)(a/4g/4) | %278
 (g/4f/4)(f'/4e'/4) (e'/4d'/4)(d'/4c'/4) .c'/4.b/4.b/4.a/4 .a/4.g/4.g/4.f/4 | %279
 e/>c'/!fermata!c' .c'/4(d'/4e'/4d'/4 c'/>).^f/ | (a2 g) a/4g/4 (3=f/4e/4d/4 | (c>G) (e>c) | %282
 g g2 g | [cga] [cfa]2 [cfa] | [cfg] [ceg]2 [ceg] | g/f/f z/{e'} d'/{c'}b/{a}g/ | %286
 (f/>^d/)e z/{a} g/{f}(e/{!tenuto!=d}c/) | B/A/4{g} (f/e/d/4) (cB) | ([FGBd]2 [EGc]) z :: %289
[M:3/4]"^Variation 12"[Q:1/4=120] [EGc]2 z2 c3/2B/4c/4 | g2 z2 c3/2B/4c/4 | [cga]2 [cfa]2 [cfa]2 | %292
 [ceg]2 z2 g3/2^f/4g/4 | ^f2 z2 =f3/2e/4f/4 | e2 z2 c3/2B/4c/4 | (d2 f2) [DFB]2 | [EGc]2 z2 z2 :: %297
 a/g/^f/g/ f/g/f/g/ f/g/f/g/ | g/=f/e/f/ e/f/e/f/ e/f/e/f/ | f/e/^d/e/ d/e/d/e/ d/e/d/e/ | %300
 e/=d/^c/d/ c/d/c/d/ c/d/c/d/ | a/g/^f/g/ f/g/f/g/ e'/g/e'/g/ | g/=f/e/f/ e/f/e/f/ d'/f/d'/f/ | %303
 f/e/^d/e/ d/e/d/e/ c'/e/c'/e/ | e/=d/^c/d/ c/d/c/d/ g/B/g/B/ | [EG=c]2 z2 c3/2B/4c/4 | %306
 g2 z2 Tc3/2B/4c/4 | [cga]2 [cfa]2 [cfa]2 | [ceg]2 z2 g3/2^f/4g/4 | ^f2 z2 =f3/2e/4f/4 | %310
 e2 z2 c3/2B/4c/4 | (d2 f2) [DFB]2 |1 [EGc]2 z2 z2 :|2 [EGc]2 z2 g3/2^f/4g/4 || %314
 ^f2 z2 =f3/2e/4f/4 | e2 z2 c3/2B/4c/4 | d2 z2 [DFB]2 | c/G/A/B/ c/d/e/f/ g/a/b/c'/ | %318
 g/a/f/g/ e/f/d/e/ c/d/B/d/ | c/G/A/B/ c/d/e/f/ g/a/b/c'/ | g/a/f/g/ e/f/d/e/ c/d/B/d/ | %321
 c2 z/ C/B,/C/ z/ E/^D/.E/ | z/ G/^F/G/ z/ E/^D/E/ z/ G/F/G/ | z/ c/B/c/ z/ e/^d/e/ z/ g/^f/g/ | %324
 [cegc']2 z2 z2 |] %325
V:2
 C,2 C2 | E2 C2 | F2 C2 | E2 C2 | D2 B,2 | C2 A,2 | F,2 G,2 | C,4 :: E2 G,2 | D2 G,2 | C2 G,2 | %11
 B,2 G,2 | E2 G,2 | D2 G,2 | C2 C>D | (C2 B,2) | C,2 C2 | E2 C2 | F2 C2 | E2 C2 | D2 B,2 | C2 A,2 | %22
 F,2 G,2 | C,4 :: C,2 (C2 | E2 C2 | F2 C2) | [CE]2 z3/2 ^C/ | D2 z3/2 B,/ | =C2 z3/2 A,/ | %30
 F,2 G,2 |1 CG,E,G, :|2 C2 C,2 |: (E2 G,2 | D2 G,2) | (C2 G,2) | (F2 G,2) | [G,E]4 | [G,D]4 | %39
 [G,C]2 z3/2 C/ | (E>C B,2) | C,2 (C2 | E2) C2 | F2 C2 | [CE]2 z3/2 ^C/ | D2 z3/2 B,/ | %46
 =C2 z3/2 A,/ | F,2 G,2 | C2 C,2 :: C,/C/B,/C/ D/C/B,/C/ | E,/C/B,/C/ D/C/B,/C/ | %51
 F,/C/B,/C/ D/C/B,/C/ | C,/C/B,/C/ D/C/B,/C/ | A,,/A,/^G,/A,/ B,,/B,/^A,/B,/ | %54
 C,/C/B,/C/ =A,,/=A,/^G,/A,/ | F,,/F,/E,/F,/ =G,,/=G,/^F,/G,/ | C,,2 C,2 :: G,/E/^D/E/ F/E/D/E/ | %58
 G,/=D/^C/D/ E/D/C/D/ | G,/G/^F/G/ A/G/F/G/ | G,/=F/E/F/ G/F/E/F/ | G,/E/^D/E/ F/E/D/E/ | %62
 G,/=D/^C/D/ E/D/C/D/ | G,/=C/B,/C/ D/C/B,/C/ | G,/B,/^A,/B,/ C/B,/A,/B,/ | C,/C/B,/C/ D/C/B,/C/ | %66
 E,/C/B,/C/ D/C/B,/C/ | F,/C/B,/C/ D/C/B,/C/ | C,/C/B,/C/ ^C,/^C/B,/C/ | %69
 D,/D/^C/D/ B,,/B,/^A,/B,/ | =C,/=C/B,/C/ =A,,/=A,/^G,/A,/ | F,,/F,/E,/F,/ =G,,/=G,/^F,/G,/ | %72
 C,,2 C,2 :: C,,2 C,2 | C4 | C4 | C4 | C2 D2 | E2 C2 | A,2 [B,F]2 | (3CG,E, C,2 :: E2 C2 | D2 B,2 | %83
 C2 E2 | F4 | E2 ^C2 | D2 B,2 | =C2 x2 | .E>.C B,2 | C,,2 C,2 | C4 | C4 | C4 | C2 D2 | E2 C2 | %95
 A,2 [B,F]2 | (3CG,E, C,2 :: (3C,,E,,G,, (3C,E,C, | (3C,,E,,G,, (3C,E,C, | (3C,,F,,A,, (3C,F,C, | %100
 (3C,,E,,G,, (3C,E,C, | (3.A,,,(^G,,A,,) (3.B,,,(^A,,B,,) | (3.C,,(B,,C,) (3=A,,,(^G,,=A,,) | %103
 (3.F,,,(E,,F,,) (3=G,,,(^F,,=G,,) | (3C,,E,,G,, C,2 :: (3G,,C,E, (3G,CE | (3G^FG (3G,A,B, | %107
 (3CB,C (3C,E,=F, | (3G,^F,G, G,,2 | (3G,,C,E, (3G,CE | (3G^FG (3G,A,B, | (3CB,C (3C,E,=F, | %112
 (3G,^F,G, G,,2 | (3C,,E,,G,, (3C,E,C, | (3C,,E,,G,, (3C,E,C, | (3C,,F,,A,, (3C,F,C, | %116
 (3C,,E,,G,, (3C,E,C, | (3.A,,,(^G,,A,,) (3.B,,,(^A,,B,,) | (3.C,,(B,,C,) (3=A,,,(^G,,=A,,) | %119
 (3.F,,,(E,,F,,) (3=G,,,(^F,,=G,,) | (3C,,E,,G,, C,2 :: z C E2 | z E C2 | z F C2 | z E C2 | %125
 D z B, z | C z A, z | F, z G, z | z C C,2 :: z E G,2 | z D G,2 | z C G,2 | z B, G,2 | z E G,2 | %134
 z D G,2 | z C G,2 | z B, G,2 | z (C,/E,/ G,2) | z (C/E/ G2) | z (F/A/) C2 | z (E/G/ C2) | %141
 D z B, z | C z E, z | F, z G, z | C z C, z :: C,/B,,/C,/B,,/ C,/B,,/C,/B,,/ | %146
 C,/B,,/C,/B,,/ C,/D,/E,/C,/ | F,/E,/F,/E,/ F,/G,/A,/B,/ | C/B,/C/B,/ C/D/E/C/ | %149
 D/^C/D/=C/ B,/A,/B,/G,/ | C/B,/C/B,/ A,/^G,/A,/=G,/ | F,/E,/F,/D,/ G,/^F,/G,/G,,/ | %152
 C,/G,,/E,,/G,,/ C,,2 :: G,/^F,/G,/F,/ G,/ F,/G,/F,/ | G,/ ^F,/G,/F,/ G,/ A,/B,/G,/ | %155
 [G,,C,E,]2 [G,,B,,D,]2 | [G,,B,,D,]2 [G,,B,,D,]2 | [G,,E,G,]2 [G,,E,G,]2 | [G,,D,F,]2 [G,,D,F,]2 | %159
 [G,,C,E,]2 [G,,C,E,]2 | [G,,B,,D,]2 z2 | C,/B,,/C,/B,,/ C,/B,,/C,/B,,/ | %162
 C,/B,,/C,/B,,/ C,/D,/E,/C,/ | F,/E,/F,/E,/ F,/G,/A,/B,/ | C/B,/C/B,/ C/D/E/C/ | %165
 D/^C/D/=C/ B,/A,/B,/G,/ | C/B,/C/B,/ A,/^G,/A,/=G,/ | F,/E,/F,/D,/ G,/^F,/G,/G,,/ | %168
 C,/G,,/E,,/G,,/ C,,2 :: [C,,C,]4 | (E,2 C,2) | (F,2 C,2) | E,2 [C,C]2 | [A,,A,]2 [B,,B,]2 | %174
 [^G,,^G,]2 [A,,A,]2 | [F,,F,]2 [=G,,=G,]2 | [C,,C,]2 z2 :: E4 | D4 | C4 | [G,B,]4 | E4 | D4 | C4 | %184
 [G,B,]4 | [C,,C,]4 | (.E,2 C,2) | (F,2 C,2) | E,2 [C,C]2 | [A,,A,]2 [B,,B,]2 | %190
 [^G,,^G,]2 [A,,A,]2 | [F,,F,]2 [=G,,=G,]2 | [C,,C,]2 z2 ::[K:Eb] z4 | z4 |[K:treble] .F.G.A.B | %196
 c2 c2 |[K:bass] G,=A,=B,G, | CG,_A,E, | F,D, G,G,, | C,2 C,,2 :: .[G,,G,]4- | .[G,,G,]4- | %203
 .[G,,G,]4 | =A,2 =B,2 | C [G,,G,] [_A,,_A,][G,,G,] | [^F,,^F,]2 [=F,,=F,]2 | %207
 [=E,,=E,]2 [_E,,_E,]2 | [D,,D,]2 [G,,,G,,]2 | [C,,C,]2 z2 | z4 |[K:treble] .F.G.A.B | %212
 =Bc/ z/ Bc/ z/ |[K:bass] G,=A,=B,G, | CG,_A,E, | F,D, G,G,, | C,2 C,,2 :: %217
[K:C] C,,/D,,/E,,/F,,/ G,,/A,,/B,,/C,/ | z4 |[K:treble] F2 F2 | c2 c2 |[K:bass] G,2 G,2 | C2 C2 | %223
 [G,,,G,,]2 [G,,,G,,]2 | [C,,C,]2 z2 :: z4 | z4 |[K:treble] .[Gc]2 .[Gc]2 | .[FB]2 .[FB]2 | %229
[K:bass] .[G,E]2 .[G,E]2 | .[F,D]2 .[F,D]2 | .[G,,E,]2 .[G,,E,]2 | .[F,,D,]2 .[F,,D,]2 | %233
 [E,,C,]2 z2 | z4 | z4 | z4 | G2 G2 | C2 C2 | [G,,G,]2 [G,,G,]2 | [C,,C,]2 z2 :: [C,,C,]2 z2 | z4 | %243
 z4 | z2 [^C,^C]2 | [D,D]2 [B,,B,]2 | [=C,=C]2 [^F,,^F,]2 | [G,,G,]2 G,,2 | C,2 C,,2 :: %249
 [G,,,G,,]2 z2 | z4 | z2 [G,,G,]2 | [^F,,^F,]2 [=F,,=F,]2 | [E,,E,]2 [E,,E,]2 | %254
 [D,,D,]2 [B,,,B,,]2 | [C,,C,]2 [^F,,,^F,,]2 | [G,,,G,,]2 z2 | [C,,C,]2 z2 | z4 | z4 | %260
 z2 [^C,^C]2 | [D,D]2 [B,,B,]2 | [=C,=C]2 [^F,,^F,]2 | [G,,G,]2 G,,2 | C,2 C,,2 ::[M:2/4] z4 | %266
 .C>.G, .E>.C | [F,,F,]3/2C, .A,.F,/ | .C,>.G,, E,>C, | [A,CF] z [B,DG] z | [CEG] z [E,G,C] z | %271
 D2 E.D | CG, C, z :: G,/[CE]/[CE]/[CE]/ G,/[CE]/[CE]/[CE]/ | %274
 G,/[DF]/[DF]/[DF]/ G,/[DF]/[DF]/[DF]/ | [EG]>[B,G] [CG]>[F,D] | [G,-C]2 [G,B,] z | %277
 G,/[EG]/[EG]/[EG]/ G,/[EG]/[EG]/[EG]/ | G,/[DF]/[DF]/[DF]/ G,/[B,D]/[B,D]/[B,D]/ | %279
 [CE] [A,C^F]2 z | C2 B, z | z4 | .C>.G, .E>.C | [F,,F,]>C, .A,>.F, | .C,>.G,, .E,>C, | %285
 [A,CF] z [B,DG] z | [CEG] z [E,G,C] z | D2 .E.D | CG, C, z :: %289
[M:3/4] C,,/C,/B,,/C,/ D,/C,/B,,/C,/ D,/C,/B,,/C,/ | E,,/C,/B,,/C,/ D,/C,/B,,/C,/ D,/C,/B,,/C,/ | %291
 F,,/C,/B,,/C,/ D,/C,/B,,/C,/ D,/C,/B,,/C,/ | C,,/C,/B,,/C,/ D,/C,/B,,/C,/ ^C,,/^C,/B,,/C,/ | %293
 D,,/D,/^C,/D,/ E,/D,/C,/D,/ B,,,/B,,/A,,/B,,/ | %294
 =C,,/=C,/B,,/C,/ D,/C,/B,,/C,/ A,,,/A,,/^G,,/A,,/ | %295
 F,,,/F,,/E,,/F,,/ =G,,/F,,/E,,/F,,/ G,,,/G,,/^F,,/G,,/ | C,,/D,,/E,,/=F,,/ G,,/A,,/B,,/C,/ C,,2 :: %297
 G,/E/^D/E/ D/E/D/E/ D/E/D/E/ | G,/=D/^C/D/ C/D/C/D/ C/D/C/D/ | G,/=C/B,/C/ B,/C/B,/C/ B,/C/B,/C/ | %300
 G,/F/E/F/ E/F/E/F/ E/F/E/F/ | G,/E/^D/E/ D/E/D/E/ G,/E/G,/E/ | G,/=D/^C/D/ C/D/C/D/ G,/D/G,/D/ | %303
 G,/=C/B,/C/ B,/C/B,/C/ G,/C/G,/C/ | G,/F/E/F/ E/F/E/F/ G,/F/G,/F/ | %305
 C,/C/B,/C/ D/C/B,/C/ D/C/B,/C/ | E,/C/B,/C/ D/C/B,/C/ D/C/B,/C/ | F,/C/B,/C/ D/C/B,/C/ D/C/B,/C/ | %308
 C,/C/B,/C/ D/C/B,/C/ ^C,/^C/B,/C/ | D,/D/^C/D/ E/D/C/D/ B,,/B,/A,/B,/ | %310
 =C,/=C/B,/C/ D/C/B,/C/ A,,/A,/^G,/A,/ | F,,/F,/E,/F,/ =G,/F,/E,/F,/ G,,/G,/^F,/G,/ |1 %312
 C,/D,/E,/=F,/ G,/A,/B,/C/ C,2 :|2 E,,/E,/D,/E,/ F,/E,/D,/E,/ E,,/E,/D,/E,/ || %314
 D,,/D,/^C,/D,/ E,/D,/C,/D,/ B,,,/B,,/A,,/B,,/ | %315
 =C,,/=C,/B,,/C,/ D,/C,/B,,/C,/ A,,,/A,,/^G,,/A,,/ | %316
 F,,,/F,,/E,,/F,,/ =G,,/F,,/E,,/F,,/ G,,,/G,,/^F,,/G,,/ | [C,,E,,G,,C,]2 z2 z2 | ED CF ED | %319
 E2 z2 z2 | ED CF ED | E2 [C,,C,]2 [E,,E,]2 | [G,,G,]2 [E,,E,]2 [G,,G,]2 | %323
 [C,,C,]2 [E,,E,]2 [G,,G,]2 | [C,E,G,C]2 z2 z2 |] %325
V:3
 x4 | x4 | x4 | x4 | x4 | x4 | x4 | x4 :: x4 | x4 | x4 | x4 | x4 | x4 | x4 | G,4 | x4 | x4 | x4 | %19
 x4 | x4 | x4 | x4 | x4 :: x4 | x4 | x4 | x4 | x4 | x4 | x4 |1 x4 :|2 x4 |: x4 | x4 | x4 | x4 | %37
 x4 | x4 | x4 | G,4 | x4 | x4 | x4 | x4 | x4 | x4 | x4 | x4 :: x4 | x4 | x4 | x4 | x4 | x4 | x4 | %56
 x4 :: x4 | x4 | x4 | x4 | x4 | x4 | x4 | x4 | x4 | x4 | x4 | x4 | x4 | x4 | x4 | x4 :: x4 | %74
 E,2 C,2 | F,2 C,2 | E,2 C,2 | A,2 B,2 | C2 A,2 | F,2 G,2 | x4 :: G,4 | G,4 | G,4 | G,4 | G,4 | %86
 G,4 | G,2 [^F,A,C]2 | G,4 | x4 | E,2 C,2 | F,2 C,2 | E,2 C,2 | A,2 B,2 | C2 A,2 | F,2 G,2 | x4 :: %97
 x4 | x4 | x4 | x4 | x4 | x4 | x4 | x4 :: x4 | x4 | x4 | x4 | x4 | x4 | x4 | x4 | x4 | x4 | x4 | %116
 x4 | x4 | x4 | x4 | x4 :: x4 | x4 | x4 | x4 | x4 | x4 | x4 | x4 :: x4 | x4 | x4 | x4 | x4 | x4 | %135
 x4 | x4 | x4 | x4 | x4 | x4 | x4 | x4 | x4 | x4 :: x4 | x4 | x4 | x4 | x4 | x4 | x4 | x4 :: %153
 [G,,E,]2 [G,,E,]2 | [G,,D,=F,]2 [G,,D,=F,]2 | x4 | x4 | x4 | x4 | x4 | x4 | x4 | x4 | x4 | x4 | %165
 x4 | x4 | x4 | x4 :: x4 | x4 | x4 | x4 | x4 | x4 | x4 | x4 :: G,4 | G,4 | G,4 | x4 | G,4 | G,4 | %183
 G,4 | x4 | x4 | x4 | x4 | x4 | x4 | x4 | x4 | x4 ::[K:Eb] x4 | x4 |[K:treble] x4 | x4 | %197
[K:bass] x4 | x4 | x4 | x4 :: x4 | x4 | x4 | G,4 | z x3 | x4 | x4 | x4 | x4 | x4 |[K:treble] x4 | %212
 x4 |[K:bass] x4 | x4 | x4 | x4 ::[K:C] x4 | x4 |[K:treble] x4 | x4 |[K:bass] x4 | x4 | x4 | x4 :: %225
 x4 | x4 |[K:treble] x4 | x4 |[K:bass] x4 | x4 | x4 | x4 | x4 | x4 | x4 | x4 | x4 | x4 | x4 | x4 :: %241
 x4 | x4 | x4 | x4 | x4 | x4 | x4 | x4 :: x4 | x4 | x4 | x4 | x4 | x4 | x4 | x4 | x4 | x4 | x4 | %260
 x4 | x4 | x4 | x4 | x4 ::[M:2/4] x4 | x4 | x4 | x4 | x4 | x4 | F,2 G,2 | x4 :: x4 | x4 | x4 | x4 | %277
 x4 | x4 | x4 | G,2 G, x | x4 | x4 | x4 | x4 | x4 | x4 | F,2 G,2 | x4 ::[M:3/4] x6 | x6 | x6 | x6 | %293
 x6 | x6 | x6 | x6 :: x6 | x6 | x6 | x6 | x6 | x6 | x6 | x6 | x6 | x6 | x6 | x6 | x6 | x6 | x6 |1 %312
 x6 :|2 x6 || x6 | x6 | x6 | x6 | G,6 | C2 x4 | G,6 | C2 x4 | x6 | x6 | x6 |] %325
V:4
 x4 | x4 | x4 | x4 | x4 | x4 | x4 | x4 :: x4 | x4 | x4 | x4 | x4 | x4 | x4 | x4 | x4 | x4 | x4 | %19
 x4 | x4 | x4 | x4 | x4 :: x4 | x4 | x4 | x4 | x4 | x4 | x4 |1 x4 :|2 x4 |: x4 | x4 | x4 | x4 | %37
 x4 | x4 | x4 | x4 | x4 | x4 | x4 | x4 | x4 | x4 | x4 | x4 :: x4 | x4 | g2 f2- | f2 e2 | %53
 [ce]2 [Gd]2- | [Gd]2 ([Ac]2 | A2) G3/2 F/ | E2 x2 :: x4 | x4 | x4 | B4 | x4 | x4 | x4 | G4 | x4 | %66
 x4 | [cg]2 [cf]2 | [cf]2 [_Be]2 | [Ae]2 [_Ad]2 | [Gd]2 [=Ac]2 | A2 G3/2 F/ | E2 x2 :: x4 | x4 | %75
 x4 | x4 | x4 | x4 | x4 | x4 :: x4 | x4 | x4 | x4 | x4 | x4 | x4 | x4 | x4 | x4 | x4 | x4 | x4 | %94
 x4 | x4 | x4 :: [EG]2 x2 | [ce]2 x2 | a4 | g4 | c2 G2 | G2 A2- | A2 F2 | E2 x2 :: e2 (e2 | x4 | %107
 d2) c2 | .c2 B2 | e2 e2- | e2 d2- | d2 c2 | c2 B2 | [EG]2 x2 | [ce]2 x2 | a4 | g4 | c2 G2 | %118
 G2 A2- | A2 F2 | E2 x2 :: x4 | x4 | x4 | g2 x e | x e x d | x d x c | x c x B | x4 :: x4 | x4 | %131
 x4 | x4 | x4 | x4 | x4 | x4 | x4 | x4 | x4 | x4 | x4 | x4 | x4 | x4 :: x4 | x4 | x4 | x4 | x4 | %150
 x4 | x4 | x4 :: x4 | x4 | x4 | x4 | x4 | x4 | x4 | x4 | x4 | x4 | x4 | x4 | x4 | x4 | x4 | x4 :: %169
 x4 | x4 | x4 | x4 | x4 | x4 | x4 | x4 :: x4 | x4 | x4 | x4 | x4 | x4 | x4 | x4 | x4 | x4 | x4 | %188
 x4 | x4 | x4 | x4 | x4 ::[K:Eb] x4 | x4 | x4 | g4 | (e2 (d2) | e4) | x4 | x4 :: G4 | A2 =B2 | %203
 c G _AG | ^F2 =F2 | =E2 _E2 | E2 D2 | G4 | G4 | x4 | x4 | x4 | g4 | (e2 d2-) | e4 | x4 | x4 :: %217
[K:C] x4 | x4 | a4 | g4 | e2 d2- | d2 c z | [DF]4 | [EG]2 x2 :: x4 | x4 | x4 | x4 | G4- | G4 | %231
 G4- | G2 x2 | x4 | x4 | f2 f2 | c2 c2 | B2 B2 | c2 [EG]2 | [DF]4 | [EG]2 x2 :: x2 c2 | %242
 z/ E/c/E/ z/ E/c/E/ | z/ F/c/F/ z/ F/c/F/ | z/ E/c/E/ z/ B/ e/ B/ | z/ A/ d/ A/ z/ A/ d/ A/ | %246
 z/ G/ c/ G/ z/ A/ c/ A/ | z/ G/ c/G/ z/ F/B/F/ | x4 :: z/ E/c/E/ z/ E/c/E/ | z/ D/c/D/ z/ D/B/D/ | %251
 z/ C/c/C/ z/ G/ c/ G/ | z/ A/ c/A/ z/ A/ B/ A/ | z/ G/ c/ G/ z/ G/ ^c/ G/ | %254
 z/ A/ d/ A/ z/ A/ d/ A/ | z/ G/ =c/ G/ z/ A/ c/ A/ | B/ x7/2 | z/ E/c/E/ z/ E/G/E/ | %258
 z/ E/c/E/ z/ E/c/E/ | z/ F/c/F/ z/ F/c/F/ | z/ E/c/E/ z/ B/ e/ B/ | z/ A/ d/ A/ z/ A/ d/ A/ | %262
 z/ G/ c/ G/ z/ A/ c/ A/ | z/ G/ c/G/ z/ F/ B/ F/ | x4 ::[M:2/4] x4 | x4 | x4 | x4 | x4 | x4 | x4 | %272
 x4 :: x4 | x4 | x4 | x4 | x4 | x4 | x4 | x4 | x4 | x4 | x4 | x4 | x4 | x4 | x4 | x4 ::[M:3/4] x6 | %290
 x6 | x6 | x6 | x6 | x6 | x6 | x6 :: x6 | x6 | x6 | x6 | x6 | x6 | x6 | x6 | x6 | x6 | x6 | x6 | %309
 x6 | x6 | x6 |1 x6 :|2 x6 || x6 | x6 | x6 | x6 | x6 | x6 | x6 | x6 | x6 | x6 | x6 |] %325
V:5
 x4 | x4 | x4 | x4 | x4 | x4 | x4 | x4 :: x4 | x4 | x4 | x4 | x4 | x4 | x4 | x4 | x4 | x4 | x4 | %19
 x4 | x4 | x4 | x4 | x4 :: x4 | x4 | x4 | x4 | x4 | x4 | x4 |1 x4 :|2 x4 |: x4 | x4 | x4 | x4 | %37
 x4 | x4 | x4 | x4 | x4 | x4 | x4 | x4 | x4 | x4 | x4 | x4 :: x4 | x4 | c4 | c4 | x4 | x4 | x4 | %56
 x4 :: x4 | x4 | x4 | x4 | x4 | x4 | x4 | x4 | x4 | x4 | x4 | x4 | x4 | x4 | x4 | x4 :: x4 | x4 | %75
 x4 | x4 | x4 | x4 | x4 | x4 :: x4 | x4 | x4 | x4 | x4 | x4 | x4 | x4 | x4 | x4 | x4 | x4 | x4 | %94
 x4 | x4 | x4 :: x4 | x4 | c4 | c4 | x4 | x4 | x4 | x4 :: x4 | x4 | x4 | x4 | x4 | x4 | x4 | x4 | %113
 x4 | x4 | (c4 | c4) | x4 | x4 | x4 | x4 :: x4 | x4 | x4 | x4 | x4 | x4 | x4 | x4 :: x4 | x4 | x4 | %132
 x4 | x4 | x4 | x4 | x4 | x4 | x4 | x4 | x4 | x4 | x4 | x4 | x4 :: x4 | x4 | x4 | x4 | x4 | x4 | %151
 x4 | x4 :: x4 | x4 | x4 | x4 | x4 | x4 | x4 | x4 | x4 | x4 | x4 | x4 | x4 | x4 | x4 | x4 :: x4 | %170
 x4 | x4 | x4 | x4 | x4 | x4 | x4 :: x4 | x4 | x4 | x4 | x4 | x4 | x4 | x4 | x4 | x4 | x4 | x4 | %189
 x4 | x4 | x4 | x4 ::[K:Eb] x4 | x4 | x4 | x4 | G4 | x4 | x4 | x4 :: x4 | x4 | x4 | x4 | x4 | x4 | %207
 x4 | x4 | x4 | x4 | x4 | x4 | G4 | x4 | x4 | x4 ::[K:C] x4 | x4 | x4 | x4 | x4 | x4 | x4 | x4 :: %225
 x4 | x4 | x4 | x4 | x4 | x4 | x4 | x4 | x4 | x4 | x4 | x4 | x4 | x4 | x4 | x4 :: x4 | x4 | x4 | %244
 x4 | x4 | x4 | x4 | x4 :: x4 | x4 | x4 | x4 | x4 | x4 | x4 | x4 | x4 | x4 | x4 | x4 | x4 | x4 | %263
 x4 | x4 ::[M:2/4] x4 | x4 | x4 | x4 | x4 | x4 | x4 | x4 :: x4 | x4 | x4 | x4 | x4 | x4 | x4 | x4 | %281
 x4 | x4 | x4 | x4 | x4 | x4 | x4 | x4 ::[M:3/4] x6 | x6 | x6 | x6 | x6 | x6 | x6 | x6 :: x6 | x6 | %299
 x6 | x6 | x6 | x6 | x6 | x6 | x6 | x6 | x6 | x6 | x6 | x6 | x6 |1 x6 :|2 x6 || x6 | x6 | x6 | x6 | %318
 x6 | x6 | x6 | x6 | x6 | x6 | x6 |] %325

